src/icons/ios-time.svg

<svg xmlns="http://www.w3.org/2000/svg" width="512" height="512" viewBox="0 0 512 512">
    <path d="M256 41.5c-114.9 0-208 93.1-208 208s93.1 208 208 208 208-93.1 208-208-93.1-208-208-208zm14 226c0 7.7-6.3 14-14 14h-96c-7.7 0-14-6.3-14-14s6.3-14 14-14h82v-132c0-7.7 6.3-14 14-14s14 6.3 14 14v146z"/>
</svg>

<?xml version="1.0" encoding="UTF-8"?>
<svg width="512px" height="512px" viewBox="0 0 512 512" version="1.1" xmlns="http://www.w3.org/2000/svg" xmlns:xlink="http://www.w3.org/1999/xlink">
    <!-- Generator: Sketch 62 (91390) - https://sketch.com -->
    <title>ios-time</title>
    <desc>Created with Sketch.</desc>
    <g id="ios-time" stroke="none" stroke-width="1" fill="none" fill-rule="evenodd">
        <path d="M256,41.5 C141.1,41.5 48,134.6 48,249.5 C48,364.4 141.1,457.5 256,457.5 C370.9,457.5 464,364.4 464,249.5 C464,134.6 370.9,41.5 256,41.5 Z M270,267.5 C270,275.2 263.7,281.5 256,281.5 L160,281.5 C152.3,281.5 146,275.2 146,267.5 C146,259.8 152.3,253.5 160,253.5 L242,253.5 L242,121.5 C242,113.8 248.3,107.5 256,107.5 C263.7,107.5 270,113.8 270,121.5 L270,267.5 Z" id="Shape" fill="#000000" fill-rule="nonzero"></path>
    </g>
</svg>
